X: 27
T:Bagi Karikazo
O:Hungary
S: from record: Hungarian Folk Dance Music -- Andor Czompo
M:2/4
L:1/8
Q:1/4=60
K:Am
  "Am"E4      |"D"^F2"E"_A2|"Am"A4      |E2"D"D2         |CD3          |"Em"CB,3|"Am"A,4|A,4|
|:"Am"c2c2    |"D"d2"Am"c2 |"Em"B2"Am"A2|E3A             |"C"cG3       |G2"F"F2 |"Am"E4 |E4 :|
  "D"^F2"E"_A2|"Am"A4      |E2"D"D2     |CD3             |"Em"CB,3     |"Am"A,4 |A,4    |
Q:1/4=180
K:A
  "A"A2A>G    |AE3         |"F#m"AF"D"DC|"A"B,<A,"E"A,<G,|"A"A,4       |\
  C2C2        |DE2z        |"F#m"FG"A"AG|"F#m"FE"A"ED    |E4           |
  "F#m"F2FG   |"A"A4       |ABcB        |B<AAG           |A4           |\
  A2A>G       |AE3         |"F#m"AF"D"DC|"A"B,<A,"E"A,<G,|"A"A,4       |
|:"E"B2"A"cB  |"F#m"AF3    |"A"A2"E"GG  |"A"FE3          |"E"B,2"E"B,A,|"E"B,4  :|\
  "A"E2ED     |"E"EB,3     |"A"A2AB     |cA3             |"E"B4        |
  "E"B2"A"cB  |"F#m"AF3    |"A"A2"E"GG  |"A"FE3          |"E"B,2B,A,   |B,4     |



